**kern	**silbe	**kern	**silbe	**harmony	**phrase	**leadinstrument	**rhyme	**timestamp	**harte
*ICvox	*	*ICvox	*	*M4/4	*	*	*	*	*M4/4
*VRlead	*	*VRharmonize	*	*	*	*	*	*	*
*Hstimme	*	*Nstimme	*	*	*	*	*	*	*
*E:	*	*E:	*	*E:	*	*	*	*	*E:
*M4/4	*	*M4/4	*	*	*	*	*	*	*
*clefF4	*	*clefF4	*	*	*	*	*	*	*
r;	.	r;	.	1r;	.	r	.	0	N.C.
=1	=1	=1	=1	=1	=1	=1	=1	=1	=1
*>Letter>A	*>Letter>A	*>Letter>A	*>Letter>A	*>Letter>A	*>Letter>A	*>Letter>A	*>Letter>A	*>Letter>A	*>Letter>A
*>Label>Intro	*>Label>Intro	*>Label>Intro	*>Label>Intro	*>Label>Intro	*>Label>Intro	*>Label>Intro	*>Label>Intro	*>Label>Intro	*>Label>Intro
1r	.	1r	.	1B-Mm	newline	r	.	0.372	B-:sus4(b7)
=2	=2	=2	=2	=2	=2	=2	=2	=2	=2
1r	.	1r	.	1B-Mm	.	r	.	2.98	B-:sus4(b7)
=3	=3	=3	=3	=3	=3	=3	=3	=3	=3
1r	.	1r	.	1BMm	.	r	.	5.588	B:sus4(b7)
=4	=4	=4	=4	=4	=4	=4	=4	=4	=4
2r	.	2r	.	1BMm	.	r	.	8.196	B:sus4(b7)
4r	.	4r	.	.	.	.	.	.	.
8r	.	8r	.	.	.	.	.	.	.
8e	Whoa	8c#	Whoa	.	.	.	.	.	.
=5	=5	=5	=5	=5	=5	=5	=5	=5	=5
*>Letter>B	*>Letter>B	*>Letter>B	*>Letter>B	*>Letter>B	*>Letter>B	*>Letter>B	*>Letter>B	*>Letter>B	*>Letter>B
*>Label>Verse	*>Label>Verse	*>Label>Verse	*>Label>Verse	*>Label>Verse	*>Label>Verse	*>Label>Verse	*>Label>Verse	*>Label>Verse	*>Label>Verse
4d#	.	4B	.	1EMM	newline	voice	.	10.805	E:maj7
4r	.	4r	.	.	.	.	.	.	.
8r	.	8r	.	.	.	.	.	.	.
[8d#	Oh,	[8B	Oh,	.	.	.	.	.	.
8.d#]	_	8.B]	_	.	.	.	.	.	.
[16c#	mer	[16B	mer	.	.	.	.	.	.
=6	=6	=6	=6	=6	=6	=6	=6	=6	=6
16c#]	_	16B]	_	1EMM	.	voice	.	13.38	E:maj7
8A	cy,	8G#	cy,	.	.	.	.	.	.
[16B	mer	[16G#	mer	.	.	.	.	.	.
16B]	_	16G#]	_	.	.	.	.	.	.
8G#	cy	8E	cy	.	.	.	.	.	.
[16B	me	[16E	me	.	.	.	A	.	.
4B]	_	4E]	_	.	.	.	.	.	.
4r	.	4r	.	.	.	.	.	.	.
=7	=7	=7	=7	=7	=7	=7	=7	=7	=7
4r	.	4r	.	1C#mm	.	voice	.	15.955	C#:min7
4r	.	4r	.	.	.	.	.	.	.
8r	.	8r	.	.	.	.	.	.	.
[8d#	Oh,	[8B	Oh,	.	.	.	.	.	.
8.d#]	_	8.B]	_	.	.	.	.	.	.
[16d#	things	[16B	things	.	.	.	.	.	.
=8	=8	=8	=8	=8	=8	=8	=8	=8	=8
16d#]	_	16B]	_	1C#mm	.	voice	.	18.53	C#:min7
8B	ain't	8G#	ain't	.	.	.	.	.	.
[16B	what	[16G#	what	.	.	.	.	.	.
16B]	_	16G#]	_	.	.	.	.	.	.
8G#	they	8E	they	.	.	.	.	.	.
[16G#	used	[16E	used	.	.	.	.	.	.
16G#]	_	16E]	_	.	.	.	.	.	.
8E	to	8C#	to	.	.	.	.	.	.
[16E	be	[16C#	be	.	.	.	A	.	.
16E]	_	16C#]	_	.	.	.	.	.	.
[8.c#	no,	16r	.	.	.	.	.	.	.
.	.	16G#	no	.	.	.	B	.	.
.	.	[16A	_	.	.	.	.	.	.
=9	=9	=9	=9	=9	=9	=9	=9	=9	=9
8.c#]	_	8.A]	_	1F#mm	newline	voice	.	21.105	F#:min7
16B	no	16G#	no	.	.	.	B	.	.
16G#	_	16E	_	.	.	.	.	.	.
8.r	.	8.r	.	.	.	.	.	.	.
8r	.	8r	.	.	.	.	.	.	.
[8c#	Where	[8A	Where	.	.	.	.	.	.
8c#]	_	8A]	_	.	.	.	.	.	.
16B	did	16G#	did	.	.	.	.	.	.
[16G#	all	[16E	all	.	.	.	.	.	.
=10	=10	=10	=10	=10	=10	=10	=10	=10	=10
16G#]	_	16E]	_	1F#mm	.	voice	.	23.667	F#:min7
8A	the	8F#	the	.	.	.	.	.	.
[16B	blue	[16G#	blue	.	.	.	.	.	.
8.B]	_	8.G#]	_	.	.	.	.	.	.
[16c#	skies	[16A	skies	.	.	.	.	.	.
8.c#]	_	8.A]	_	.	.	.	.	.	.
[16G#	go?	[16E	go?	.	.	.	B	.	.
16G#]	_	16E]	_	.	.	.	.	.	.
8.r	.	8.r	.	.	.	.	.	.	.
=11	=11	=11	=11	=11	=11	=11	=11	=11	=11
8r	.	8r	.	1BM	.	voice	.	26.23	B:sus4(b7)
[8B	Poi	[8G#	Poi	.	.	.	.	.	.
8B]	_	8G#]	_	.	.	.	.	.	.
16A	son	16F#	son	.	.	.	.	.	.
[16G#	is	[16E	is	.	.	.	.	.	.
16G#]	_	16E]	_	.	.	.	.	.	.
8A	the	8F#	the	.	.	.	.	.	.
[16G#	wind	[16E	wind	.	.	.	.	.	.
16G#]	_	16E]	_	.	.	.	.	.	.
8E	that	8C#	that	.	.	.	.	.	.
[16E	blows	[16C#	blows	.	.	.	B	.	.
=12	=12	=12	=12	=12	=12	=12	=12	=12	=12
8E]	_	8C#]	_	1BM	.	voice	.	28.792	B:sus4(b7)
8r	.	8r	.	.	.	.	.	.	.
8E	from	8C#	from	.	.	.	.	.	.
16F#	the	16D#	the	.	.	.	.	.	.
[16G#	north	[16E	north	.	.	.	.	.	.
16G#]	_	16E]	_	.	.	.	.	.	.
8E	and	8C#	and	.	.	.	.	.	.
[16E	south	[16C#	south	.	.	.	.	.	.
16E]	_	16C#]	_	.	.	.	.	.	.
16F#	and	16D#	and	.	.	.	.	.	.
8E	east.	8C#	east.	.	.	.	A	.	.
=13	=13	=13	=13	=13	=13	=13	=13	=13	=13
*>Letter>B	*>Letter>B	*>Letter>B	*>Letter>B	*>Letter>B	*>Letter>B	*>Letter>B	*>Letter>B	*>Letter>B	*>Letter>B
*>Label>Verse	*>Label>Verse	*>Label>Verse	*>Label>Verse	*>Label>Verse	*>Label>Verse	*>Label>Verse	*>Label>Verse	*>Label>Verse	*>Label>Verse
4r	.	4r	.	1EMM	newline	voice	.	31.354	E:maj7
4r	.	16r	.	.	.	.	.	.	.
.	.	[8.F#	(vocalizing)	.	.	.	.	.	.
8r	.	2F#]	_	.	.	.	.	.	.
16e	Whoa,	.	.	.	.	.	.	.	.
[16d#	_	.	.	.	.	.	.	.	.
8.d#]	_	.	.	.	.	.	.	.	.
[16d#	mer	.	.	.	.	.	.	.	.
=14	=14	=14	=14	=14	=14	=14	=14	=14	=14
16d#]	_	2r	.	1EMM	.	voice	.	33.897	E:maj7
8B	cy,	.	.	.	.	.	.	.	.
[16B	mer	.	.	.	.	.	.	.	.
16B]	_	.	.	.	.	.	.	.	.
8G#	cy,	.	.	.	.	.	.	.	.
[16c#	me	.	.	.	.	.	A	.	.
8.c#]	_	8r	.	.	.	.	.	.	.
.	.	[8F#	Oh,	.	.	.	.	.	.
[16B	_	.	.	.	.	.	.	.	.
4B]	_	8.F#]	_	.	.	.	.	.	.
.	.	[16F#	mer	.	.	.	.	.	.
=15	=15	=15	=15	=15	=15	=15	=15	=15	=15
4r	.	16F#]	_	1C#mm	.	voice	.	36.441	C#:min7
.	.	8E	cy.	.	.	.	.	.	.
.	.	16r	.	.	.	.	.	.	.
4r	.	4r	.	.	.	.	.	.	.
8r	.	2r	.	.	.	.	.	.	.
[8d#	Oh,	.	.	.	.	.	.	.	.
8.d#]	_	.	.	.	.	.	.	.	.
[16d#	things	.	.	.	.	.	.	.	.
=16	=16	=16	=16	=16	=16	=16	=16	=16	=16
16d#]	_	2r	.	1C#mm	.	voice	.	38.984	C#:min7
8B	ain't	.	.	.	.	.	.	.	.
[16B	what	.	.	.	.	.	.	.	.
16B]	_	.	.	.	.	.	.	.	.
8G#	they	.	.	.	.	.	.	.	.
[16G#	used	.	.	.	.	.	.	.	.
16G#]	_	4r	.	.	.	.	.	.	.
8E	to	.	.	.	.	.	.	.	.
[16E	be,	.	.	.	.	.	A	.	.
16E]	_	16r	.	.	.	.	.	.	.
[8.c#	no,	8E	(vocalizing)	.	.	.	.	.	.
.	.	[16F#	_	.	.	.	.	.	.
=17	=17	=17	=17	=17	=17	=17	=17	=17	=17
8.c#]	_	16F#]	_	1F#mm	newline	voice	.	41.528	F#:min7
.	.	8E	_	.	.	.	.	.	.
16B	no	[16F#	_	.	.	.	.	.	.
16G#	_	8.F#]	_	.	.	.	.	.	.
8.r	.	.	.	.	.	.	.	.	.
.	.	16G#	_	.	.	.	.	.	.
8r	.	4r	.	.	.	.	.	.	.
[8c#	Oil	.	.	.	.	.	.	.	.
8.c#]	_	16r	.	.	.	.	.	.	.
.	.	8F#	Have	.	.	.	.	.	.
[16B	was	[16F#	mer	.	.	.	.	.	.
=18	=18	=18	=18	=18	=18	=18	=18	=18	=18
16B]	_	16F#]	_	1F#mm	.	voice	.	44.115	F#:min7
8G#	ted	8E	cy.	.	.	.	.	.	.
[16G#	on	16r	.	.	.	.	.	.	.
16G#]	_	4r	.	.	.	.	.	.	.
8A	the	.	.	.	.	.	.	.	.
[16G#	o	.	.	.	.	.	.	.	.
16G#]	_	2r	.	.	.	.	.	.	.
8F#	cean,	.	.	.	.	.	.	.	.
16r	.	.	.	.	.	.	.	.	.
16E	and	.	.	.	.	.	.	.	.
8F#	u-	.	.	.	.	.	.	.	.
[16G#	-pon	.	.	.	.	.	.	.	.
=19	=19	=19	=19	=19	=19	=19	=19	=19	=19
16G#]	_	1r	.	1BM	.	voice	.	46.702	B:sus4(b7)
[8.B	our	.	.	.	.	.	.	.	.
16B]	_	.	.	.	.	.	.	.	.
8.G#	seas,	.	.	.	.	.	A	.	.
8r	.	.	.	.	.	.	.	.	.
8A	fish	.	.	.	.	.	.	.	.
8G#	full	.	.	.	.	.	.	.	.
16F#	of	.	.	.	.	.	.	.	.
[16G#	mer	.	.	.	.	.	.	.	.
=20	=20	=20	=20	=20	=20	=20	=20	=20	=20
16G#]	_	1r	.	1BM	.	voice	.	49.289	B:sus4(b7)
8E	cu-	.	.	.	.	.	.	.	.
16E	-ry	.	.	.	.	.	A	.	.
8C#	_	.	.	.	.	.	.	.	.
8r	.	.	.	.	.	.	.	.	.
8r	.	.	.	.	.	.	.	.	.
[8e	Oh	.	.	.	.	.	.	.	.
8.e]	_	.	.	.	.	.	.	.	.
[16d#	_	.	.	.	.	.	.	.	.
=21	=21	=21	=21	=21	=21	=21	=21	=21	=21
*>Letter>B	*>Letter>B	*>Letter>B	*>Letter>B	*>Letter>B	*>Letter>B	*>Letter>B	*>Letter>B	*>Letter>B	*>Letter>B
*>Label>Verse	*>Label>Verse	*>Label>Verse	*>Label>Verse	*>Label>Verse	*>Label>Verse	*>Label>Verse	*>Label>Verse	*>Label>Verse	*>Label>Verse
4.d#]	.	1r	.	1EMM	newline	voice	.	51.876	E:maj7
8r	.	.	.	.	.	.	.	.	.
8r	.	.	.	.	.	.	.	.	.
[8d#	Oh,	.	.	.	.	.	.	.	.
8.d#]	_	.	.	.	.	.	.	.	.
[16d#	mer	.	.	.	.	.	.	.	.
=22	=22	=22	=22	=22	=22	=22	=22	=22	=22
16d#]	_	2r	.	1EMM	.	voice	.	54.433	E:maj7
8B	cy,	.	.	.	.	.	.	.	.
[16B	mer	.	.	.	.	.	.	.	.
16B]	_	.	.	.	.	.	.	.	.
8G#	cy,	.	.	.	.	.	.	.	.
[16c#	me	.	.	.	.	.	A	.	.
8.c#]	_	8r	.	.	.	.	.	.	.
.	.	8G#	(vocalizing)	.	.	.	.	.	.
[16B	_	.	.	.	.	.	.	.	.
4B_	_	16F#	_	.	.	.	.	.	.
.	.	16G#	_	.	.	.	.	.	.
.	.	16F#	_	.	.	.	.	.	.
.	.	[16F#	_	.	.	.	.	.	.
=23	=23	=23	=23	=23	=23	=23	=23	=23	=23
8B]	_	16F#]	_	1C#mm	.	voice	.	56.991	C#:min7
.	.	8E	_	.	.	.	.	.	.
8r	.	.	.	.	.	.	.	.	.
.	.	[16F#	_	.	.	.	.	.	.
4r	.	16F#]	_	.	.	.	.	.	.
.	.	8G#	_	.	.	.	.	.	.
.	.	16r	.	.	.	.	.	.	.
8r	.	2r	.	.	.	.	.	.	.
[8d#	Oh,	.	.	.	.	.	.	.	.
8.d#]	_	.	.	.	.	.	.	.	.
[16d#	things	.	.	.	.	.	.	.	.
=24	=24	=24	=24	=24	=24	=24	=24	=24	=24
16d#]	_	2r	.	1C#mm	.	voice	.	59.549	C#:min7
8B	ain't	.	.	.	.	.	.	.	.
[16B	what	.	.	.	.	.	.	.	.
16B]	_	.	.	.	.	.	.	.	.
8G#	they	.	.	.	.	.	.	.	.
[16G#	used	.	.	.	.	.	.	.	.
16G#]	_	4r	.	.	.	.	.	.	.
8E	to	.	.	.	.	.	.	.	.
[16E	be,	.	.	.	.	.	A	.	.
16E]	_	16r	.	.	.	.	.	.	.
[8.c#	no,	8G#	Oh,	.	.	.	.	.	.
.	.	[16F#	help	.	.	.	.	.	.
=25	=25	=25	=25	=25	=25	=25	=25	=25	=25
8.c#]	_	16F#]	_	1F#mm	newline	voice	.	62.107	F#:min7
.	.	8E	us,	.	.	.	.	.	.
16B	no	[16F#	Fa	.	.	.	.	.	.
16G#	_	16F#]	_	.	.	.	.	.	.
8.r	.	16G#	ther.	.	.	.	.	.	.
.	.	8r	.	.	.	.	.	.	.
8r	.	2r	.	.	.	.	.	.	.
[8c#	Ra	.	.	.	.	.	.	.	.
8c#]	_	.	.	.	.	.	.	.	.
16B	di-	.	.	.	.	.	.	.	.
[16G#	-a	.	.	.	.	.	.	.	.
=26	=26	=26	=26	=26	=26	=26	=26	=26	=26
16G#]	_	1r	.	1F#mm	.	voice	.	64.669	F#:min7
8A	tion	.	.	.	.	.	.	.	.
[16G#	un	.	.	.	.	.	.	.	.
16G#]	_	.	.	.	.	.	.	.	.
8A	der-	.	.	.	.	.	.	.	.
[16B	-ground	.	.	.	.	.	.	.	.
8B]	_	.	.	.	.	.	.	.	.
16B	and	.	.	.	.	.	.	.	.
[16B	in	.	.	.	.	.	.	.	.
16B]	_	.	.	.	.	.	.	.	.
[8.c#	the	.	.	.	.	.	.	.	.
=27	=27	=27	=27	=27	=27	=27	=27	=27	=27
8.c#]	_	1r	.	1BM	.	voice	.	67.231	B:sus4(b7)
[16G#	sky,	.	.	.	.	.	C	.	.
16G#]	_	.	.	.	.	.	.	.	.
16r	.	.	.	.	.	.	.	.	.
[8G#	a	.	.	.	.	.	.	.	.
8G#]	_	.	.	.	.	.	.	.	.
16A	ni-	.	.	.	.	.	.	.	.
[16G#	-mals	.	.	.	.	.	.	.	.
16G#]	_	.	.	.	.	.	.	.	.
8A	and	.	.	.	.	.	.	.	.
[16G#	birds	.	.	.	.	.	.	.	.
=28	=28	=28	=28	=28	=28	=28	=28	=28	=28
16G#]	_	2r	.	1BM	.	voice	.	69.793	B:sus4(b7)
8A	who	.	.	.	.	.	.	.	.
[16B	live	.	.	.	.	.	.	.	.
16B]	_	.	.	.	.	.	.	.	.
8B	near-	.	.	.	.	.	.	.	.
[16G#	-by	.	.	.	.	.	C	.	.
16G#]	_	8r	.	.	.	.	.	.	.
[8.G#	are	.	.	.	.	.	.	.	.
.	.	16E	(vocalizing)	.	.	.	.	.	.
.	.	[16F#	_	.	.	.	.	.	.
8.G#]	_	16F#]	_	.	.	.	.	.	.
.	.	8.G#	_	.	.	.	.	.	.
16E	dy-	.	.	.	.	.	C	.	.
=29	=29	=29	=29	=29	=29	=29	=29	=29	=29
*>Letter>B	*>Letter>B	*>Letter>B	*>Letter>B	*>Letter>B	*>Letter>B	*>Letter>B	*>Letter>B	*>Letter>B	*>Letter>B
*>Label>Verse	*>Label>Verse	*>Label>Verse	*>Label>Verse	*>Label>Verse	*>Label>Verse	*>Label>Verse	*>Label>Verse	*>Label>Verse	*>Label>Verse
16C#	-ing.	8F#	Help	1EMM	newline	voice	.	72.356	E:maj7
8.r	.	.	.	.	.	.	.	.	.
.	.	16E	us,	.	.	.	.	.	.
.	.	[16F#	Fa	.	.	.	.	.	.
4r	.	16F#]	_	.	.	.	.	.	.
.	.	8G#	ther.	.	.	.	.	.	.
.	.	16r	.	.	.	.	.	.	.
8r	.	8r	.	.	.	.	.	.	.
[8d#	Oh,	[8G#	(vocalizing)	.	.	.	.	.	.
8.d#]	_	8.G#]	_	.	.	.	.	.	.
[16d#	mer	16B	_	.	.	.	.	.	.
=30	=30	=30	=30	=30	=30	=30	=30	=30	=30
16d#]	_	8r	.	1EMM	.	voice	.	74.895	E:maj7
8B	cy,	.	.	.	.	.	.	.	.
.	.	16r	.	.	.	.	.	.	.
[16B	mer	16G#	_	.	.	.	.	.	.
16B]	_	8r	.	.	.	.	.	.	.
8G#	cy,	.	.	.	.	.	.	.	.
.	.	16r	.	.	.	.	.	.	.
[16c#	me	[16F#	_	.	.	.	A	.	.
4c#_	_	4F#]	_	.	.	.	.	.	.
16c#]	_	4r	.	.	.	.	.	.	.
8.B	_	.	.	.	.	.	.	.	.
=31	=31	=31	=31	=31	=31	=31	=31	=31	=31
4r	.	8F#	Help	1C#mm	.	voice	.	77.434	C#:min7
.	.	16E	us,	.	.	.	.	.	.
.	.	[16F#	Fa	.	.	.	.	.	.
4r	.	16F#]	_	.	.	.	.	.	.
.	.	8G#	ther.	.	.	.	.	.	.
.	.	16r	.	.	.	.	.	.	.
8r	.	16r	.	.	.	.	.	.	.
.	.	[8.G#	Please	.	.	.	.	.	.
[8d#	Oh,	.	.	.	.	.	.	.	.
8.d#]	_	16G#]	_	.	.	.	.	.	.
.	.	8F#	have	.	.	.	.	.	.
[16d#	things	[16F#	mer	.	.	.	.	.	.
=32	=32	=32	=32	=32	=32	=32	=32	=32	=32
16d#]	_	16F#]	_	1C#mm	.	voice	.	79.973	C#:min7
8B	ain't	8E	cy.	.	.	.	.	.	.
[16B	what	16r	.	.	.	.	.	.	.
16B]	_	16r	.	.	.	.	.	.	.
8G#	they	[8.B	Mm	.	.	.	.	.	.
16r	.	.	.	.	.	.	.	.	.
8r	.	4B]	_	.	.	.	.	.	.
[8f#	used	.	.	.	.	.	.	.	.
4f#_	_	16r	.	.	.	.	.	.	.
.	.	8F#	(vocalizing)	.	.	.	.	.	.
.	.	[16F#	_	.	.	.	.	.	.
=33	=33	=33	=33	=33	=33	=33	=33	=33	=33
4f#_	_	16F#]	_	1F#mm	newline	voice	.	82.512	F#:min7
.	.	8F#	_	.	.	.	.	.	.
.	.	[16G#	_	.	.	.	.	.	.
16f#]	_	4G#_	_	.	.	.	.	.	.
8g#	to	.	.	.	.	.	.	.	.
[16e	be	.	.	.	.	.	A	.	.
8.e]	_	8.G#]	_	.	.	.	.	.	.
16r	.	[16F#	_	.	.	.	.	.	.
16r	.	16F#]	_	.	.	.	.	.	.
[8.c#	What	8F#	have	.	.	.	.	.	.
.	.	[16F#	mer	.	.	.	.	.	.
=34	=34	=34	=34	=34	=34	=34	=34	=34	=34
8c#]	_	16F#]	_	1F#mm	.	voice	.	85.09	F#:min7
.	.	8E	cy,	.	.	.	.	.	.
16B	a-	.	.	.	.	.	.	.	.
[16G#	-bout	[16E	(vocalizing)	.	.	.	.	.	.
16G#]	_	4E]	_	.	.	.	.	.	.
8A	this	.	.	.	.	.	.	.	.
[16G#	o	.	.	.	.	.	.	.	.
16G#]	_	16r	.	.	.	.	.	.	.
8A	ver-	[8.G#	(vocalizing)	.	.	.	.	.	.
[16B	-crow	.	.	.	.	.	.	.	.
8.B]	_	16G#]	_	.	.	.	.	.	.
.	.	8F#	_	.	.	.	.	.	.
[16c#	ded	[16F#	_	.	.	.	.	.	.
=35	=35	=35	=35	=35	=35	=35	=35	=35	=35
16c#]	_	16F#]	_	1BM	.	voice	.	87.668	B:sus4(b7)
8G#	land,	[8.E	_	.	.	.	D	.	.
[16B	how	.	.	.	.	.	.	.	.
16B]	_	4E]	_	.	.	.	.	.	.
8G#	much	.	.	.	.	.	.	.	.
[16G#	more	.	.	.	.	.	.	.	.
8G#]	_	8r	.	.	.	.	.	.	.
16A	a-	[8B	Please,	.	.	.	.	.	.
[16G#	-buse	.	.	.	.	.	.	.	.
16G#]	_	8.B]	_	.	.	.	.	.	.
8E	from	.	.	.	.	.	.	.	.
16E	man	[16c#	have	.	.	.	D	.	.
=36	=36	=36	=36	=36	=36	=36	=36	=36	=36
16C#	_	16c#]	_	1BM	.	voice	.	90.246	B:sus4(b7)
8.r	.	8G#	mer-	.	.	.	.	.	.
.	.	[16F#	-cy	.	.	.	.	.	.
8.G#	can	8F#]	.	.	.	.	.	.	.
.	.	8r	.	.	.	.	.	.	.
[16G#	she	.	.	.	.	.	.	.	.
8G#]	_	2r	.	.	.	.	.	.	.
16E	stand?	.	.	.	.	.	D	.	.
16C#	_	.	.	.	.	.	.	.	.
8r	.	.	.	.	.	.	.	.	.
8e	Woo	.	.	.	.	.	.	.	.
=37	=37	=37	=37	=37	=37	=37	=37	=37	=37
*>Letter>B	*>Letter>B	*>Letter>B	*>Letter>B	*>Letter>B	*>Letter>B	*>Letter>B	*>Letter>B	*>Letter>B	*>Letter>B
*>Label>Verse	*>Label>Verse	*>Label>Verse	*>Label>Verse	*>Label>Verse	*>Label>Verse	*>Label>Verse	*>Label>Verse	*>Label>Verse	*>Label>Verse
[1d#	_	4r	.	1EMM	newline	voice	.	92.823	E:maj7
.	.	8r	.	.	.	.	.	.	.
.	.	[8d#	Oh,	.	.	.	.	.	.
.	.	4d#_	_	.	.	.	.	.	.
.	.	8.d#]	_	.	.	.	.	.	.
.	.	[16c#	no,	.	.	.	.	.	.
=38	=38	=38	=38	=38	=38	=38	=38	=38	=38
4d#]	.	2.c#]	_	1EMM	.	voice	.	95.397	E:maj7
4r	.	.	.	.	.	.	.	.	.
8r	.	.	.	.	.	.	.	.	.
[8e	Ooh	.	.	.	.	.	.	.	.
16e]	_	[4c#	no,	.	.	.	.	.	.
[8.d#	_	.	.	.	.	.	.	.	.
=39	=39	=39	=39	=39	=39	=39	=39	=39	=39
2d#]	.	16c#]	_	1C#mm	.	voice	.	97.971	C#:min7
.	.	[8.G#	no,,	.	.	.	.	.	.
.	.	8.G#]	_	.	.	.	.	.	.
.	.	[16F#	no,	.	.	.	.	.	.
8r	.	8.F#]	_	.	.	.	.	.	.
[8c#	(vocalizing)	.	.	.	.	.	.	.	.
.	.	[16G#	no,	.	.	.	.	.	.
8.c#]	_	8.G#]	_	.	.	.	.	.	.
[16B	_	[16E	no	.	.	.	.	.	.
=40	=40	=40	=40	=40	=40	=40	=40	=40	=40
16B]	_	16E]	_	1C#mm	.	voice	.	100.545	C#:min7
[8.G#	_	8.C#	.	.	.	.	.	.	.
4G#]	_	2.r	.	.	.	.	.	.	.
16r	.	.	.	.	.	.	.	.	.
[8.f#	No,	.	.	.	.	.	.	.	.
4f#_	_	.	.	.	.	.	.	.	.
=41	=41	=41	=41	=41	=41	=41	=41	=41	=41
16f#]	_	1r	.	1F#mm	newline	voice	.	103.119	F#:min7
[8.g#	no,	.	.	.	.	.	.	.	.
8.g#]	_	.	.	.	.	.	.	.	.
[16e	no,	.	.	.	.	.	.	.	.
8e]	_	.	.	.	.	.	.	.	.
[8f#	no,	.	.	.	.	.	.	.	.
16f#]	_	.	.	.	.	.	.	.	.
8.c#	no...	.	.	.	.	.	.	.	.
=42	=42	=42	=42	=42	=42	=42	=42	=42	=42
8r	.	1r	.	1F#mm	.	voice	.	105.674	F#:min7
16r	.	.	.	.	.	.	.	.	.
[16c#	My,	.	.	.	.	.	.	.	.
8.c#]	_	.	.	.	.	.	.	.	.
[16B	my,	.	.	.	.	.	.	.	.
4B_	_	.	.	.	.	.	.	.	.
8B]	_	.	.	.	.	.	.	.	.
16G#	_	.	.	.	.	.	.	.	.
16F#	_	.	.	.	.	.	.	.	.
=43	=43	=43	=43	=43	=43	=43	=43	=43	=43
8.G#	oh,	1r	.	1BM	.	voice	.	108.229	B:sus4(b7)
[16B	my!	.	.	.	.	.	.	.	.
4B]	_	.	.	.	.	.	.	.	.
8r	.	.	.	.	.	.	.	.	.
16r	.	.	.	.	.	.	.	.	.
[16B	(Vocalizing)	.	.	.	.	.	.	.	.
16B]	_	.	.	.	.	.	.	.	.
8G#	_	.	.	.	.	.	.	.	.
[16G#	_	.	.	.	.	.	.	.	.
=44	=44	=44	=44	=44	=44	=44	=44	=44	=44
4G#]	_	1r	.	1BM	.	voice	.	110.784	B:sus4(b7)
8.r	.	.	.	.	.	.	.	.	.
[16f#	Wee	.	.	.	.	.	.	.	.
8.f#]	_	.	.	.	.	.	.	.	.
[16e	_	.	.	.	.	.	.	.	.
4e]	.	.	.	.	.	.	.	.	.
=45	=45	=45	=45	=45	=45	=45	=45	=45	=45
*>Letter>C	*>Letter>C	*>Letter>C	*>Letter>C	*>Letter>C	*>Letter>C	*>Letter>C	*>Letter>C	*>Letter>C	*>Letter>C
*>Label>Solo	*>Label>Solo	*>Label>Solo	*>Label>Solo	*>Label>Solo	*>Label>Solo	*>Label>Solo	*>Label>Solo	*>Label>Solo	*>Label>Solo
*F:	*	*	*	*F:	*F:	*F:	*	*F:	*F:
1r	.	1r	.	1FMM	newline	saxophone	.	113.34	F:maj7
=46	=46	=46	=46	=46	=46	=46	=46	=46	=46
1r	.	1r	.	1FMM	.	saxophone	.	115.923	F:maj7
=47	=47	=47	=47	=47	=47	=47	=47	=47	=47
1r	.	1r	.	1Dmm	.	saxophone	.	118.507	D:min7
=48	=48	=48	=48	=48	=48	=48	=48	=48	=48
1r	.	1r	.	1Dmm	.	saxophone	.	121.09	D:min7
=49	=49	=49	=49	=49	=49	=49	=49	=49	=49
1r	.	1r	.	1Gmm	newline	saxophone	.	123.674	G:min7
=50	=50	=50	=50	=50	=50	=50	=50	=50	=50
1r	.	1r	.	1Gmm	.	saxophone	.	126.251	G:min7
=51	=51	=51	=51	=51	=51	=51	=51	=51	=51
1r	.	1r	.	1CMm	.	saxophone	.	128.827	C:sus4(b7)
=52	=52	=52	=52	=52	=52	=52	=52	=52	=52
1r	.	1r	.	1CMm	.	saxophone	.	131.404	C:sus4(b7)
=53	=53	=53	=53	=53	=53	=53	=53	=53	=53
*>Label>>Fadeout	*>Label>>Fadeout	*>Label>>Fadeout	*>Label>>Fadeout	*>Label>>Fadeout	*>Label>>Fadeout	*>Label>>Fadeout	*>Label>>Fadeout	*>Label>>Fadeout	*>Label>>Fadeout
*b-:	*	*	*	*b-:	*b-:	*b-:	*	*b-:	*b-:
1r	.	1r	.	1B-mm	newline	saxophone	.	133.981	B-:min9
=54	=54	=54	=54	=54	=54	=54	=54	=54	=54
1r	.	1r	.	1B-mm	.	saxophone	.	136.557	B-:min9
=55	=55	=55	=55	=55	=55	=55	=55	=55	=55
1r	.	1r	.	1B-mm	.	saxophone	.	139.134	B-:min9
=56	=56	=56	=56	=56	=56	=56	=56	=56	=56
1r	.	1r	.	1B-mm	.	saxophone	.	141.71	B-:min9
=57	=57	=57	=57	=57	=57	=57	=57	=57	=57
1r	.	1r	.	1B-mm	.	saxophone	.	143.964	B-:min9
=58	=58	=58	=58	=58	=58	=58	=58	=58	=58
1r	.	1r	.	1B-mm	.	saxophone	.	144.287	B-:min9
=59	=59	=59	=59	=59	=59	=59	=59	=59	=59
1r	.	1r	.	1B-mm	.	saxophone	.	148.151	B-:min9
=60	=60	=60	=60	=60	=60	=60	=60	=60	=60
1r	.	1r	.	1B-mm	.	saxophone	.	148.473	B-:min9
r;	.	r;	.	1r;	.	r	.	151.286	N.C.
*-	*-	*-	*-	*-	*-	*-	*-	*-	*-
!!!BillboardChartDate: 1971/08/07
!!!BillboardPeak: 4
!!!BillboardWeeksOnChart: 12
!!!COC: Marvin Gaye
!!!ENC: Nathaniel Condit-Schultz
!!!EST: Awating manual error checking and editing.
!!!OTL: Mercy Mercy Me (The Ecology)
!!!RDF**chordsym: original McGill chord annotation + (implied pitch class set, with bass pitch in first position)
!!!RDF**harmony: **recip + pitch class of root + harmonic quality
!!!RDF**leadinstrument: original McGill primary instrumentation annotation
!!!RDF**phrase: newline = linebreak in original McGill transcription
!!!RDF**timestamp: McGill audio timestamp in seconds
!!!RDT: 2017/01/12/
!!!SampleActualRank: 10
!!!SampleID#: 0819
!!!SampleTargetRank: 10
